!!!!SEGMENT: pl-sa--l-1636--093_anonim-najwyzsza-matko.krn
!!!id: 17xx:800
!!!COM: Anonim
!!!OTL: Najwyższa Matko
!!!PDT:
!!!SMS-siglum: PL-SA
!!!SMS-shelfmark: L 1636
!!!NIFC-rismID: 1001087442
!!!URL-scan: http://repozytorium.nifc.pl/skany/pl-sa-nut--l1636
!!!ONB-nifc: 44r, skan 0039, s. 1-4
!!!SMS-variant:
!!!SMS-altvar:
**kern	**fba	**kern
*part2	*	*part1
*staff2	*	*staff1
*clefF4	*	*clefC1
*k[]	*	*k[]
*M3/2	*	*M3/2
=1	=1	=1
*all\right	*	*all\right
*^	*	*^
!	!	!	!	!LO:TX:b:t=Naywyszſza Matko
1D	1DD	.	4f 4d/	2ryy
.	.	.	4e/	.
*	*	*	*	*2\right
.	.	.	2f/	2.d\
2C/	2CC/	.	2g 2e/	.
.	.	.	.	4ryy
=2	=2	=2	=2	=2
!LO:N:vis=1	!LO:N:vis=4.	!	!	!
1.F	4FF/	.	1a 1f	1c
.	4GG/	.	.	.
.	4AA/	.	.	.
.	4BB/	.	.	.
.	4C\	.	2g/	2e\
.	4C#X\	.	.	.
*v	*v	*	*	*
=3	=3	=3	=3
4D/	.	2.f/	2.d\
4C/	.	.	.
4BB-X/	.	.	.
4AA/	.	4f\	4d\
4GG/	.	2g/	4B\
!LO:TX:a:t=P:problem:prawdopodobna wysokość dźwięku	!	!	!
4AA/	.	.	4c#X\
!!LO:LB:g=original
=4	=4	=4	=4
*^	*	*	*^
4BB-X/	1ryy	.	2f/	2d\	2ryy
4FF/	.	.	.	.	.
4GG/	.	.	2.ryy	2d\	1e
4EE/	.	.	.	.	.
*	*2\right	*	*	*	*
4A/	2AA\	.	.	2c#X\	.
4G/	.	.	4g/	.	.
*v	*v	*	*	*	*
*	*	*v	*v	*v
=5	=5	=5
1.D 1.AA 1.DD	.	1.f# 1.d 1.G
=6||	=6||	=6||
*	*	*^
!LO:TX:a:t=P:problem:dźwięk c lub d	!	!LO:TX:a:t=P:problem:dźwięk c lub d	!
2D/	.	2d/	1ryy
2A\	.	2a 2e/	.
2E\	.	2b/	2g#X\
=7	=7	=7	=7
*^	*	*	*
1A	4.AA\	.	1cc 1a	1e
.	8BB\	.	.	.
.	4C\	.	.	.
.	4D\	.	.	.
!LO:N:vis=4	!	!	!	!
2rc	2E\	.	2b/	2g#X 2e\
*v	*v	*	*	*
=8	=8	=8	=8
4A\	.	2.cc/	2.a\
4G\	.	.	.
4F\	.	.	.
4E\	.	4cc/	4a\
4D\	.	2dd/	4f#X\
4E\	.	.	4g#X\
=9	=9	=9	=9
4F\	.	2cc/	2a\
!LO:TX:a:t=P:problem:prawdopodobna wysokość dźwięku	!	!	!
4C\	.	.	.
4D/	.	1b	2a\
!LO:TX:a:t=P:problem:prawdopodobna wysokość dźwięku	!	!	!
4BB/	.	.	.
4E\	.	.	2g#X\
4EE/	7	.	.
*	*	*v	*v
=10	=10	=10
1.A 1.E 1.AA	.	1.a 1.e 1.c#X
!!LO:LB:g=original
=11	=11	=11
*^	*	*^
!	!LO:TX:a:t=P:problem:znaczek z dwukropkiem, może ff&colon;	!	!	!
2F/	2FF/	.	2cc/	2a 2f\
4G/	4GG/	.	2b-X/	2g\
8D/L	4ryy	.	.	.
8E/J	.	.	.	.
!LO:TX:t=P:problem:mixed beam	!	!	!	!
8F\L	2ryy	.	2a/	2f\
8AA/	.	.	.	.
8BB/	.	.	.	.
8D/J	.	.	.	.
*v	*v	*	*	*
=12	=12	=12	=12
*	*	*	*^
1.C 1.CC	.	1.a	2f\	1ryy
.	.	.	4e\	.
.	.	.	4d\	.
.	.	.	4c\	2e/
.	.	.	4B-\	.
*	*	*v	*v	*v
=13	=13	=13
1.F 1.C 1.AA 1.FF	.	1.f 1.c 1.A
=14	=14	=14
*^	*	*^
2.C/	1ryy	.	2.g/	2.e\
4AA/	.	.	4a/	4f\
4G/	4GG/	.	2b 2g/	2d\
8D/L	4ryy	.	.	.
8E/J	.	.	.	.
*v	*v	*	*	*
=15	=15	=15	=15
!LO:TX:t=P:problem:mixed beam	!	!	!
8F\L	.	2a/	2f\
8AA/	.	.	.
8BB/	.	.	.
8D/J	.	.	.
1C 1CC	.	1g	4f\
.	.	.	8e\L
.	.	.	8d\J
.	.	.	4c\
.	.	.	4B\
*	*	*v	*v
=16	=16	=16
1.F 1.C 1.AA 1.FF	.	1.f 1.c 1.A
=17	=17	=17
*	*	*^
!	!	!LO:N:vis=1	!LO:N:vis=1
8C/L	.	2g	2e
8BB-X/	.	.	.
8AA/	.	.	.
8GG/J	.	.	.
2FF/	.	4a/	4f\
!	!	!LO:TX:a:t=P:problem:przed dźwiękami literki "g" i "e"	!
.	.	4g/	4e\
4BB-/	.	2f/	2d\
4AA/	.	.	.
!!LO:LB:g=original
=18	=18	=18	=18
*	*	*	*^
2GG/	.	4g/	4e\	1ryy
.	.	4f/	4d\	.
1G 1AA	.	1e	4d\	.
.	.	.	8c#X\L	.
.	.	.	8B\J	.
.	.	.	4A\	2c#X/
.	.	.	4G\	.
*	*	*v	*v	*v
=19	=19	=19
!LO:TX:a:t=P:problem:kreska taktowa :||:	!	!LO:TX:a:t=P:problem:kreska taktowa :||:
1.F#X 1.D 1.AA 1.DD	.	1.d 1.A 1.F#X
==	==	==
*-	*-	*-
!!!system-decoration: s1,s2
!!!ENC: Marta Chmielewska
!!!END: 2020-06-12
!!!ENC: Marta Lawrence
!!!END: 2020-12-09
